build/service/PlusOutline.svg

<svg xmlns="http://www.w3.org/2000/svg" fill="none" viewBox="0 0 24 24" focusable="false"><path d="M0 0H24V24H0z"/><path fill="#74767B" d="M12.6501 4.99998C12.6501 4.64099 12.3591 4.34998 12.0001 4.34998C11.6411 4.34998 11.3501 4.64099 11.3501 4.99998L11.3501 11.35L5.0001 11.35C4.64111 11.35 4.3501 11.641 4.3501 12C4.3501 12.359 4.64111 12.65 5.0001 12.65L11.3501 12.65L11.3501 19C11.3501 19.359 11.6411 19.65 12.0001 19.65C12.3591 19.65 12.6501 19.359 12.6501 19L12.6501 12.65L19.0001 12.65C19.3591 12.65 19.6501 12.359 19.6501 12C19.6501 11.641 19.3591 11.35 19.0001 11.35L12.6501 11.35L12.6501 4.99998Z"/></svg>

<svg xmlns="http://www.w3.org/2000/svg" fill="none" viewBox="0 0 24 24" focusable="false"><path fill="#74767B" d="M12.64 4.99c0-.35-.29-.65-.64-.65-.36 0-.65.3-.65.65v6.36H5c-.36 0-.65.29-.65.65 0 .35.29.65.65.65h6.35V19c0 .35.29.65.65.65.35 0 .64-.3.64-.65v-6.35H19c.35 0 .64-.3.64-.65 0-.36-.29-.65-.64-.65h-6.36z"/></svg>
